assets/svg/friends.svg

<?xml version="1.0" encoding="UTF-8"?>
<svg width="1000px" height="1000px" viewBox="0 0 1000 1000" version="1.1" xmlns="http://www.w3.org/2000/svg" xmlns:xlink="http://www.w3.org/1999/xlink">
    <!-- Generator: sketchtool 52.4 (67378) - http://www.bohemiancoding.com/sketch -->
    <title>friends</title>
    <desc>Created with sketchtool.</desc>
    <g id="新版图标" stroke="none" stroke-width="1" fill="none" fill-rule="evenodd">
        <g id="friends" fill="#323233">
            <g id="圆角-好友参团-面">
                <path d="M694.936349,481.759652 C838.455626,518.934018 944.444444,649.32176 944.444444,804.464518 C944.444444,819.805761 932.00791,832.242296 916.666667,832.242296 L305.555556,832.242296 C290.214313,832.242296 277.777778,819.805761 277.777778,804.464518 C277.777778,648.625374 384.720232,517.763979 529.220772,481.264701 C463.554246,450.047341 418.158735,383.102793 418.158735,305.555556 C418.158735,198.166854 505.214478,111.111111 612.60318,111.111111 C719.991881,111.111111 807.047624,198.166854 807.047624,305.555556 C807.047624,383.515142 761.168058,450.758982 694.936349,481.759652 Z M416.77664,177.924198 C391.393616,214.040828 376.492069,258.05797 376.492069,305.555556 C376.492069,371.361561 405.363301,431.96183 452.931141,473.312934 C331.962931,525.998644 247.468234,642.128254 237.170695,776.68674 L134.259259,776.68674 C121.47489,776.68674 111.111111,766.322961 111.111111,753.538592 C111.111111,623.672639 200.229822,514.621477 320.646938,484.205411 C265.924835,458.190944 228.095242,402.403821 228.095242,337.781123 C228.095242,248.290539 300.641695,175.744086 390.132279,175.744086 C399.207306,175.744086 408.108088,176.490118 416.77664,177.924198 Z" id="Combined-Shape"></path>
            </g>
        </g>
    </g>
</svg>

<svg width="1000" height="1000" xmlns="http://www.w3.org/2000/svg"><path d="M694.936 481.76c143.52 37.174 249.508 167.562 249.508 322.705 0 15.34-12.436 27.777-27.777 27.777H305.556c-15.342 0-27.778-12.436-27.778-27.777 0-155.84 106.942-286.701 251.443-323.2-65.667-31.218-111.062-98.162-111.062-175.71 0-107.388 87.055-194.444 194.444-194.444 107.389 0 194.445 87.056 194.445 194.445 0 77.96-45.88 145.203-112.112 176.204zm-278.16-303.836c-25.382 36.117-40.284 80.134-40.284 127.632 0 65.806 28.871 126.406 76.44 167.757-120.97 52.686-205.464 168.815-215.761 303.374H134.259c-12.784 0-23.148-10.364-23.148-23.148 0-129.866 89.119-238.918 209.536-269.334-54.722-26.014-92.552-81.801-92.552-146.424 0-89.49 72.547-162.037 162.037-162.037 9.075 0 17.976.746 26.645 2.18z" fill="#323233" fill-rule="evenodd"/></svg>
